X:1
T: Skänklåt efter Per Hellstedt
S: Efter Per Hellstedt
O: Uppland, Tobo
R: Skänklåt
M: 2/4
L: 1/16
Z: Karl Ljungkvist, 2011-03-04
K: D
A2 |: f2f2 gfed | cdef e2Bc | dcdB edcB |1 [M:3/4] c2A2 [EA,]6 A2 :|2 [M:3/4] c2A2 [EA,]6 d2 ||
[M: 2/4] |: BGdG AFdF | G2E2 EGBG |1 [M:3/4] F2D2 A,6 d2 :|2 [M:3/4] F2D2 A,6 A2 ||
[M: 2/4] |: (d/e/d/c/)dA (d/e/d/c/)dA | defg a2ag | fafd egec | d6 A2 :|

